X: 146
T: Panu swemu dajmy cześć rymy nowymi,
C: Mikołaj Gomółka
%%abc-version 2.0
%%abcx-abcm2ps-target-version 5.9.1 (29 Sep 2008)
%%abc-creator hum2abc beta
%%abcx-conversion-date 2021/10/04 07:59:10
%%abc-edited-by Anna Matuszewska
%%abcx-initial-encoding-date 2020-02-25
%%humdrum-veritas 2471386714
%%humdrum-veritas-data 3956254404
%%linebreak <none>
%%barnumbers 0
L: 1/4
M: C|
N: Derived from pl-wn--sd-xvi-qu-273--149_gomolka-mikolaj--panu-swemu-dajmy-czesc-rymy-nowymi.krn
%%staves [1 2 3 4]
V: 1 clef=treble
V: 2
V: 3 clef=alto
V: 4 clef=bass
K: F
[V:1] F4A4 [I:setbarnb 3][|] 
[V:2] C2F4ED [|] 
[V:3] A,4F,4 [|] 
[V:4] F,,2F,E,D,C,D,2 [|] 
[V:1] c4c2c2 [|] 
[V:2] EF2EF2A2 [|] 
[V:3] G,A,2G,A,B,C3 [|] 
[V:4] C,4F,,2F,G, [|] 
[V:1] c2c2A4 [|] 
[V:2] A2G2A3G [|] 
[V:3] DE2F3E [|] 
[V:4] A,B,C2F,4 [|] 
[V:1] B2>c2d2cB [|] 
[V:2] F2F4E2 [|] 
[V:3] D2>C2B,A,B,2 [|] 
[V:4] B,2>A,2G,F,G,2 [|] 
[V:1] A2c2c2c2 [|] 
[V:2] F2E2E2F2 [|] 
[V:3] C2C2>B,2A,G, [|] 
[V:4] F,2A,2>G,2F,E, [|] 
[V:1] c2c2d4 [|] 
[V:2] C2F2F2F2 [|] 
[V:3] A,2>G,2F,G,A,B, [|] 
[V:4] F,2>E,2D,E,F,G, [|] 
[V:1] c2d2B2B2 [|] 
[V:2] E2DEF2D2 [|] 
[V:3] C2B,CDEF4 [|] 
[V:4] A,2B,2>C2D2 [|] 
[V:1] c2>B2A4 [|] 
[V:2] E2>D2C4 [|] 
[V:3] E2F4 [|] 
[V:4] C4F,4 [|] 


